X: 96
T:Boys of Bluehill, The
R:hornpipe
M:C|
K:D
AB|BAFA D2FA|BA (3Bcd e2de|faaf egfe|dfed B2dB|
BAFA D2FA|BA (3Bcd e2de|faaf egfe|d2f2 d2:|
fg|afdf a2gf|efga b2ag|faaf egfe|dfed B2dB|
BAFA D2FA|BA (3Bcd e2de| faaf egfe|d2f2 d2:|bo

